X: 1
T: A Fig For A Kiss
R: slip jig
M: 9/8
L: 1/8
K: Edor
|: G2B E2B BAG | F2A D2A AGF | G2B E2B BAG |
[1 B/c/dB AGF DEF :|2 B/c/dB AGF E3 ||
|: g2e g2e edB | f2d dcd fed |1 g2e g2e edB |
dBG GBd e2f :|2 gfe fed ecA | B/c/dB AGF E2F ||


Tune 750	Setting 25895

